src/images/svg/symbols/markets-stocks-and-indices/american-stocks/stocks-alibaba-group-holding-ltd.svg

<svg width="32" height="32" viewBox="0 0 32 32" fill="none" xmlns="http://www.w3.org/2000/svg">
<path d="M0 16C0 7.16344 7.16344 0 16 0C24.8366 0 32 7.16344 32 16C32 24.8366 24.8366 32 16 32C7.16344 32 0 24.8366 0 16Z" fill="#FF7503"/>
<path fill-rule="evenodd" clip-rule="evenodd" d="M18.1183 10H17.1109C15.396 10.1072 13.7027 10.5788 12.095 11.2218C9.82287 12.1435 7.72222 13.5154 6.11457 15.3803C5.57869 16.0019 5.10711 16.6664 4.6784 17.3523C4.2497 18.0597 3.92817 18.8956 4.01391 19.7531C4.07822 20.3747 4.42118 20.932 4.93563 21.275C5.62156 21.7465 6.45753 21.8752 7.27207 21.8966C8.66537 21.8752 10.0372 21.6179 11.3448 21.1464C12.1379 20.8463 12.931 20.5033 13.6812 20.096C12.2665 20.4819 10.8089 20.782 9.32986 20.8677C8.45102 20.9106 7.50786 20.9106 6.69332 20.5033C6.62481 20.4843 6.55968 20.4571 6.49864 20.4231C6.54701 20.4474 6.59771 20.4672 6.65041 20.4819C6.39318 20.3318 6.20026 20.0746 6.20026 19.7745C6.20026 19.4101 6.43605 19.1314 6.67184 18.8742C7.16485 18.3598 7.80791 17.9954 8.47241 17.7167V16.2591C9.65135 16.6664 10.9589 16.6878 12.1593 16.2806C12.7595 16.0876 13.3382 15.7661 13.8527 15.4017C13.8955 15.5732 13.9384 15.7661 13.9384 15.9376H14.2599C14.2599 15.6589 14.2171 15.3588 14.0241 15.1231C13.8312 14.8873 13.5311 14.7587 13.231 14.7158C13.2731 14.7579 13.3176 14.8 13.3627 14.8429C13.4556 14.9309 13.5518 15.0221 13.6383 15.1231C12.3522 16.0662 10.6159 16.3877 9.0726 15.9376C9.25095 15.7394 9.44305 15.555 9.63407 15.3716C9.85628 15.1582 10.077 14.9463 10.273 14.7158C10.2158 14.53 10.1396 14.3442 10.0634 14.1585C10.0253 14.0656 9.98717 13.9727 9.95144 13.8798C10.8517 13.5797 11.752 13.2796 12.6523 13.001C14.3242 12.4865 16.0391 12.1221 17.7539 11.822C17.6727 11.7544 17.5937 11.6867 17.5154 11.6197C17.3457 11.4745 17.1797 11.3324 17.0037 11.2004C17.068 11.1575 17.1269 11.12 17.1859 11.0825C17.2448 11.045 17.3037 11.0075 17.3681 10.9646C17.5699 11.0197 17.7788 11.0712 17.9896 11.1233C18.5176 11.2536 19.0582 11.3871 19.533 11.5862C19.9403 11.7577 20.3475 11.9721 20.5833 12.3579C20.6816 12.5151 20.7078 12.6903 20.7115 12.867C20.7061 12.9051 20.6991 12.9427 20.6906 12.9795C20.5834 13.494 20.2833 13.9655 19.9832 14.3942C19.4044 15.2088 18.7614 15.9804 18.0969 16.7307C17.9644 16.8821 17.8308 17.0325 17.6974 17.1828C17.2264 17.7132 16.7568 18.242 16.3392 18.8099C16.0177 19.26 15.7176 19.7531 15.6533 20.3104C15.6104 20.7176 15.7819 21.1892 16.1677 21.3821C16.725 21.6822 17.3895 21.6179 18.0112 21.5536C19.1044 21.4036 20.1547 21.0606 21.1836 20.6962C22.5126 20.2246 23.8201 19.6459 25.0848 19.0243C25.1427 18.9953 25.2008 18.9663 25.2588 18.9373C26.1889 18.4729 27.1324 18.0017 28 17.4166C27.8242 17.4888 27.6483 17.5615 27.4723 17.6343C26.447 18.058 25.4171 18.4837 24.356 18.8313C22.4268 19.4958 20.4119 19.9888 18.3756 20.1175C18.3519 20.1175 18.3276 20.1178 18.3028 20.1181C18.1257 20.1205 17.9258 20.1231 17.7754 20.0103C17.6468 19.9245 17.6468 19.7316 17.6896 19.603C17.7703 19.3611 17.9267 19.1382 18.0698 18.9342C18.0789 18.9213 18.0879 18.9084 18.0969 18.8956C18.4782 18.3947 18.8856 17.9094 19.2936 17.4234C20.0553 16.516 20.8191 15.6061 21.4194 14.5872C21.7623 14.0084 22.041 13.3439 21.9981 12.658C21.9981 11.9506 21.6337 11.2647 21.055 10.8574C20.1976 10.2358 19.1258 10.0857 18.1183 10ZM17.5733 10.7614C17.5621 10.7577 17.5508 10.754 17.5396 10.7502C17.5386 10.75 17.5377 10.7498 17.5367 10.7495C17.5489 10.7535 17.5611 10.7575 17.5733 10.7614ZM17.4753 10.7288C17.4538 10.7207 17.4322 10.7127 17.4107 10.7073C17.4108 10.7073 17.4106 10.7073 17.4107 10.7073C17.4322 10.7153 17.4538 10.7234 17.4753 10.7288ZM16.5565 11.1557C16.5555 11.1563 16.5545 11.1569 16.5536 11.1575C16.5842 11.1843 16.6142 11.2111 16.6437 11.2381C16.615 11.2102 16.586 11.1827 16.5565 11.1557Z" fill="white"/>
</svg>

<svg width="32" height="32" fill="none" xmlns="http://www.w3.org/2000/svg"><path d="M0 16C0 7.163 7.163 0 16 0s16 7.163 16 16-7.163 16-16 16S0 24.837 0 16Z" fill="#FF7503"/><path fill-rule="evenodd" clip-rule="evenodd" d="M18.118 10h-1.007c-1.715.107-3.408.579-5.016 1.222-2.272.921-4.373 2.293-5.98 4.158a15.96 15.96 0 0 0-1.437 1.972c-.428.708-.75 1.544-.664 2.401.064.622.407 1.179.922 1.522.686.472 1.522.6 2.336.622a12.563 12.563 0 0 0 4.073-.75c.793-.3 1.586-.644 2.336-1.051-1.414.386-2.872.686-4.351.772-.879.043-1.822.043-2.637-.365a.887.887 0 0 1-.194-.08c.048.024.099.044.151.059-.257-.15-.45-.407-.45-.707 0-.365.236-.644.472-.9.493-.515 1.136-.88 1.8-1.158v-1.458a5.715 5.715 0 0 0 3.687.022c.6-.193 1.18-.515 1.694-.88.043.172.085.365.085.537h.322c0-.28-.043-.58-.236-.815-.193-.236-.493-.364-.793-.407.042.042.087.084.132.127.093.088.189.18.275.28-1.286.943-3.022 1.265-4.565.815.178-.199.37-.383.561-.566.222-.214.443-.426.639-.656a6.635 6.635 0 0 0-.21-.557c-.038-.093-.076-.186-.112-.28.9-.3 1.801-.6 2.701-.878 1.672-.514 3.387-.879 5.102-1.179l-.239-.202c-.17-.145-.335-.288-.511-.42l.182-.117c.059-.038.118-.075.182-.118.202.055.41.106.622.158.528.13 1.068.264 1.543.463.407.172.814.386 1.05.772a.97.97 0 0 1 .129.509 1.329 1.329 0 0 1-.021.112c-.108.515-.408.987-.708 1.415a28.092 28.092 0 0 1-1.886 2.337l-.4.452c-.47.53-.94 1.059-1.358 1.627-.321.45-.621.943-.686 1.5-.043.408.129.88.515 1.072.557.3 1.222.236 1.843.172 1.093-.15 2.144-.493 3.173-.858a36.825 36.825 0 0 0 3.9-1.672l.175-.087c.93-.464 1.873-.935 2.741-1.52l-.528.217c-1.025.424-2.055.85-3.116 1.197-1.93.665-3.944 1.158-5.98 1.287h-.073c-.177.003-.377.005-.528-.108-.128-.086-.128-.278-.085-.407.08-.242.237-.465.38-.669l.027-.038c.381-.501.789-.987 1.197-1.473.761-.907 1.525-1.817 2.125-2.836.343-.579.622-1.243.58-1.929 0-.707-.365-1.393-.944-1.8-.857-.622-1.93-.772-2.937-.858Zm-.545.761-.033-.01a5.192 5.192 0 0 0 .034.011Zm-.098-.032a.604.604 0 0 0-.064-.022c.021.008.043.016.064.022Zm-.919.427a.074.074 0 0 0-.002.002l.09.08a3.986 3.986 0 0 0-.087-.082Z" fill="#fff"/></svg>
